docs/assets/img/icon/linkedin.svg

<svg xmlns="http://www.w3.org/2000/svg" xmlns:xlink="http://www.w3.org/1999/xlink" viewBox="0 0 32 32" version="1.1">
<g id="surface1">
<path style=" " d="M 7.5 5 C 6.132813 5 5 6.132813 5 7.5 L 5 24.5 C 5 25.867188 6.132813 27 7.5 27 L 24.5 27 C 25.867188 27 27 25.867188 27 24.5 L 27 7.5 C 27 6.132813 25.867188 5 24.5 5 Z M 7.5 7 L 24.5 7 C 24.785156 7 25 7.214844 25 7.5 L 25 24.5 C 25 24.785156 24.785156 25 24.5 25 L 7.5 25 C 7.214844 25 7 24.785156 7 24.5 L 7 7.5 C 7 7.214844 7.214844 7 7.5 7 Z M 10.4375 8.71875 C 9.488281 8.71875 8.71875 9.488281 8.71875 10.4375 C 8.71875 11.386719 9.488281 12.15625 10.4375 12.15625 C 11.386719 12.15625 12.15625 11.386719 12.15625 10.4375 C 12.15625 9.488281 11.386719 8.71875 10.4375 8.71875 Z M 19.46875 13.28125 C 18.035156 13.28125 17.082031 14.066406 16.6875 14.8125 L 16.625 14.8125 L 16.625 13.5 L 13.8125 13.5 L 13.8125 23 L 16.75 23 L 16.75 18.3125 C 16.75 17.074219 16.996094 15.875 18.53125 15.875 C 20.042969 15.875 20.0625 17.273438 20.0625 18.375 L 20.0625 23 L 23 23 L 23 17.78125 C 23 15.226563 22.457031 13.28125 19.46875 13.28125 Z M 9 13.5 L 9 23 L 11.96875 23 L 11.96875 13.5 Z "></path>
</g>
</svg>

<svg xmlns="http://www.w3.org/2000/svg" viewBox="0 0 32 32"><path d="M7.5 5A2.518 2.518 0 0 0 5 7.5v17C5 25.867 6.133 27 7.5 27h17c1.367 0 2.5-1.133 2.5-2.5v-17C27 6.133 25.867 5 24.5 5zm0 2h17c.285 0 .5.215.5.5v17c0 .285-.215.5-.5.5h-17a.489.489 0 0 1-.5-.5v-17c0-.285.215-.5.5-.5zm2.938 1.719a1.719 1.719 0 1 0 0 3.437 1.719 1.719 0 0 0 0-3.437zm9.03 4.562c-1.433 0-2.386.785-2.78 1.531h-.063V13.5h-2.813V23h2.938v-4.688c0-1.238.246-2.437 1.781-2.437 1.512 0 1.532 1.398 1.532 2.5V23H23v-5.219c0-2.554-.543-4.5-3.531-4.5zM9 13.5V23h2.969v-9.5z"/></svg>
